!!!COM:	Josquin des Prez
!!!CDT:	~1450-1521/08/27
!!!OTL:	Sanctus De passione
!!!AGN:	Mass section; Sanctus
!!!SCT:	NJE 13.9
!!!SCA:	New Josquin Edition 13.9
!!!voices:	4
**kern	**kern	**kern	**kern
*staff4	*staff3	*staff2	*staff1
*Ivox	*Ivox	*Ivox	*Ivox
*I"Bassus	*I"Tenor	*I"Altus	*I"Superius
*I'B	*I'T	*I'A	*I'S
*>[A,B,C,D,C]	*>[A,B,C,D,C]	*>[A,B,C,D,C]	*>[A,B,C,D,C]
*>alt[A,B,C,E,C]	*>alt[A,B,C,E,C]	*>alt[A,B,C,E,C]	*>alt[A,B,C,E,C]
*>A	*>A	*>A	*>A
*clefF4	*clefGv2	*clefGv2	*clefG2
*k[]	*k[]	*k[]	*k[]
*M3/1	*M3/1	*M3/1	*M3/1
*met(O)	*met(O)	*met(O)	*met(O)
=1-	=1-	=1-	=1-
[0.E	0e	0.r	0e
.	1e	.	1g
=2	=2	=2	=2
1E]	1.c	0.r	1g
0F	.	.	1.a
.	1.d	.	.
.	.	.	2g/
=3	=3	=3	=3
0E	0e	0B	0g
1r	1r	1c	1r
=4	=4	=4	=4
0E	0e	1.B	0g
.	.	2G/	.
1C	1e	1c	2g/
.	.	.	2a/
=5	=5	=5	=5
1.G	2.d\	1B	1.b
.	4c\	.	.
.	2d\	1G	.
2E\	2e\	.	1cc
1F	2c\	1A	.
.	2d\	.	4b\
.	.	.	4a/
=6	=6	=6	=6
1E	1.e	2B\	1g
.	.	1c	.
2C/	.	.	1r
1D	2d\	4B\	.
.	.	4A/	.
.	1f	1d	1a
2C/	.	.	.
=7	=7	=7	=7
1AA	2e\	2c\	1cc
.	2c\	2A/	.
1GG	1d	2B\	2.b\
.	.	1G	.
.	.	.	4a/
[1C	1e	.	4g/
.	.	.	4f/
.	.	[2A/	[2e/
=8	=8	=8	=8
2C/]	1.A	4A/]	2e/]
.	.	4G/	.
2D\	.	4F/	2d/
.	.	4E/	.
1F	.	1D	1a
.	1d	.	.
1E	.	1r	2.g/
.	2c\	.	.
.	.	.	4e/
=9	=9	=9	=9
2D\	2d\	2r	2f/
1E	2.B\	2.G/	2g/
.	.	.	1e
.	4A/	4F/	.
2C/	1A	1E	.
1BB	.	.	1r
.	2G#i/	2D/	.
=10	=10	=10	=10
0AA	0.A	0E	1.cc
.	.	.	2cc\
1r	.	[1F	1cc
=11	=11	=11	=11
1.FF	1r	2F/]	1.cc
.	.	2F/	.
.	1.c	1F	.
2FF/	.	.	4b\
.	.	.	4a/
1FF	.	1f	2.cc\
.	2c\	.	.
.	.	.	4b\
=12	=12	=12	=12
1C	1c	1e	2g/
.	.	.	1a
1D	2A/	1r	.
.	2B-i\	.	2f/
2E\	2G/	1r	2g/
[2F\	2A/	.	[2c/
=13	=13	=13	=13
2F\]	2.F/	0.r	2c/]
1D	.	.	1f
.	4G/	.	.
.	4A/	.	.
.	4F/	.	.
2C/	1c	.	2e/
2F\	.	.	1d
2G\	2B\	.	.
=14	=14	=14	=14
1A	2c\	[0.e	1c
.	2A/	.	.
2G\	0E	.	1B
2.A\	.	.	.
.	.	.	1B
4F#i\	.	.	.
2G#i\	.	.	.
=15	=15	=15	=15
1A	1.c	0e]	2A/
.	.	.	2a/
1r	.	.	2g/
.	2A/	.	2.a/
1E	1B	1e	.
.	.	.	4f#i/
.	.	.	2g#i/
=16	=16	=16	=16
2.F\	[0.Al	2c\	0.a
.	.	1d	.
4E\	.	.	.
2D\	.	.	.
2C/	.	2e\	.
2D\	.	2.f\	.
2E\	.	.	.
.	.	4e\	.
=17	=17	=17	=17
2.F\	0.A_	2d\	2.a/
.	.	2c\	.
4E\	.	.	4g/
2D\	.	2d\	2f/
2C/	.	2e\	2e/
2.D\	.	2.f\	1d
4E\	.	4e\	.
=18	=18	=18	=18
0.AAl	0.A]	0.el	0.cl
!!LO:LB:i:g=z
=19||	=19||	=19||	=19||
*>B	*>B	*>B	*>B
*clefF4	*clefGv2	*clefGv2	*clefG2
*k[]	*k[]	*k[]	*k[]
*M3/1	*M3/1	*M3/1	*M3/1
*met(O)	*met(O)	*met(O)	*met(O)
!!!OMD: Pleni
!!section: Pleni
0.r	0.r	0e	1e
.	.	.	1g
.	.	1f	2.a/
.	.	.	4b\
=20	=20	=20	=20
0.r	0.r	2e\	1cc
.	.	2c\	.
.	.	2d\	2b\
.	.	2e\	1cc
.	.	1f	.
.	.	.	4b\
.	.	.	4a/
=21	=21	=21	=21
0.r	0.r	2.e\	2cc\
.	.	.	2b\
.	.	4d\	.
.	.	4e\	1g
.	.	4f\	.
.	.	1g	.
.	.	.	2.a/
.	.	4f\	.
.	.	4e\	4g/
=22	=22	=22	=22
0.r	0.r	2g\	2e/
.	.	2.f\	2d/
.	.	.	1g
.	.	4e\	.
.	.	1e	.
.	.	.	1f
.	.	2d\	.
=23	=23	=23	=23
0.r	0.r	2e\	0e
.	.	2.A/	.
.	.	4G/	.
.	.	4A/	.
.	.	4B\	.
.	.	2.c\	2.e/
.	.	4B\	4d/
=24	=24	=24	=24
0.r	0.r	2A/	4e/
.	.	.	4f/
.	.	1G	1g
.	.	2c\	2e/
.	.	2d\	1d
.	.	2B\	.
=25	=25	=25	=25
0.r	0.r	0c	2c/
.	.	.	2g/
.	.	.	2a/
.	.	.	1cc
.	.	2.d\	.
.	.	.	2b\
.	.	4e\	.
=26	=26	=26	=26
0.r	0.r	2f\	2a/
.	.	2.e\	2.g/
.	.	4d\	8f/L
.	.	.	8e/J
.	.	2f\	4d/
.	.	.	4c/
.	.	2.e\	2cc\
.	.	.	[2b\
.	.	4d\	.
=27	=27	=27	=27
0.r	0.r	2f\	4b\]
.	.	.	4a/
.	.	1e	2.cc\
.	.	.	4b\
.	.	2c\	1a
.	.	1B	.
.	.	.	2g#i/
=28	=28	=28	=28
0.r	0.r	0.Al	0.al
!!LO:LB:i:g=z
=29||	=29||	=29||	=29||
*>C	*>C	*>C	*>C
*clefF4	*clefGv2	*clefGv2	*clefG2
*k[]	*k[]	*k[]	*k[]
*M3/1	*M3/1	*M3/1	*M3/1
*met(O)	*met(O)	*met(O)	*met(O)
!!!OMD: Osanna
!!section: Osanna
0F	0c	0f	0a
1F	1c	1f	1a
=30	=30	=30	=30
0C	0c	0e	0g
1F	1A	1c	1a
=31	=31	=31	=31
1E	1G	1g	1b
0D	0A	0f	0dd
=32	=32	=32	=32
0.AAl	0.Al	0.el	0.ccl
!!LO:TX:rj:i:t=fine
!!LO:LB:i:g=z
=33||	=33||	=33||	=33||
*>D	*>D	*>D	*>D
*clefF4	*clefGv2	*clefGv2	*clefG2
*k[]	*k[]	*k[]	*k[]
*M2/1	*M2/1	*M2/1	*M2/1
*met(C|)	*met(C|)	*met(C|)	*met(C|)
!!!OMD: Honor et benedictio
!!section: Honor et benedictio
0E	0E	0e	0g
=34	=34	=34	=34
0E;	0G;	0e;	0b;
=35	=35	=35	=35
0AA	0A	0c	0cc
=36	=36	=36	=36
1E	1G	1g	1b
1F	1A	1f	1a
=37	=37	=37	=37
!	!	!	!LO:TX:Z=50:t=Either the motet "Honor et benedictio" or the
!	!	!	!LO:TX:Z=30:t=Benedictus should be performed, but not both.
[0C	[0c	[0e	[0g
=38	=38	=38	=38
1C]	1c]	1e]	1g]
1C	1c	1e	1g
=39	=39	=39	=39
0C;	0c;	0e;	0g;
=40	=40	=40	=40
0C	0E	0c	0g
=41	=41	=41	=41
0C	0G	[0c	0e
=42	=42	=42	=42
0F	0A	1c]	0f
.	.	1c	.
=43	=43	=43	=43
1E	1G	1c	1g
1D	1A	1F	1f
=44	=44	=44	=44
[0AA	[0c	[0A	[0e
=45	=45	=45	=45
1AA]	1c]	1A]	1e]
1AA	1c	1A	1e
=46	=46	=46	=46
0AA;	0c;	0A;	0e;
=47	=47	=47	=47
0AA	0e	0c	0cc
=48	=48	=48	=48
0C	0e	1c	0cc
.	.	[1g	.
=49	=49	=49	=49
1GG	1d	1g]	1b
1D	1d	1f	1a
=50	=50	=50	=50
1.AA	[0c	[0e	[0cc
2BB/	.	.	.
=51	=51	=51	=51
1C	1c]	1e]	1cc]
1C	1c	1e	1g
=52	=52	=52	=52
0C;	0c;	0e;	0g;
=53	=53	=53	=53
0C	0e	0g	0cc
=54	=54	=54	=54
1G	1d	1g	1b
1A	1c	1e	1a
=55	=55	=55	=55
0E;	0B;	0e;	0g;
=56	=56	=56	=56
[0E	[0G	[0e	[0g
=57	=57	=57	=57
1E]	1G]	1e]	1g]
1E	1G	1e	1g
=58	=58	=58	=58
[0C	[0G	[0e	1g
.	.	.	1e
=59	=59	=59	=59
1C]	1G]	1e]	[0el
1AA	1A	1c	.
=60	=60	=60	=60
0AAl	0Al	0cl	0e]
!!LO:LB:i:g=z
=61||	=61||	=61||	=61||
*>E	*>E	*>E	*>E
*clefF4	*clefGv2	*clefGv2	*clefG2
*k[]	*k[]	*k[]	*k[]
*M3/1	*M3/1	*M3/1	*M3/1
*met(O)	*met(O)	*met(O)	*met(O)
!!!OMD: Benedictus
!!section: Benedictus
0E	1E	0.r	0.r
.	1G	.	.
1F	2.A/	.	.
.	4B\	.	.
=62	=62	=62	=62
2E\	1c	0.r	0.r
2C/	.	.	.
2D\	2B\	.	.
2E\	1c	.	.
1F	.	.	.
.	4B\	.	.
.	4A/	.	.
=63	=63	=63	=63
2.E\	2c\	0.r	0.r
.	2B\	.	.
4D\	.	.	.
4E\	1G	.	.
4F\	.	.	.
1G	.	.	.
.	2.A/	.	.
4F\	.	.	.
4E\	4G/	.	.
=64	=64	=64	=64
2G\	2E/	0.r	0.r
2.F\	2D/	.	.
.	1G	.	.
4E\	.	.	.
1E	.	.	.
.	1F	.	.
2D\	.	.	.
=65	=65	=65	=65
2E\	0E	0.r	0.r
2.AA/	.	.	.
4GG/	.	.	.
4AA/	.	.	.
4BB/	.	.	.
2.C/	2.E/	.	.
4BB/	4D/	.	.
=66	=66	=66	=66
2AA/	4E/	0.r	0.r
.	4F/	.	.
1GG	1G	.	.
2C/	2E/	.	.
2D\	1D	.	.
2BB/	.	.	.
=67	=67	=67	=67
0C	2C/	0.r	0.r
.	2G/	.	.
.	2A/	.	.
.	1c	.	.
2.D\	.	.	.
.	2B\	.	.
4E\	.	.	.
=68	=68	=68	=68
2F\	2A/	0.r	0.r
2.E\	2.G/	.	.
4D\	8F/L	.	.
.	8E/J	.	.
2F\	4D/	.	.
.	4C/	.	.
2.E\	2c\	.	.
.	[2B\	.	.
4D\	.	.	.
=69	=69	=69	=69
2F\	4B\]	0.r	0.r
.	4A/	.	.
1E	2.c\	.	.
.	4B\	.	.
2C/	1A	.	.
1BB	.	.	.
.	2G#i/	.	.
=70	=70	=70	=70
0.AAl	0.Al	0.r	0.r
!!LO:TX:i:Y=40:rj:t=Osanna ut supra
=||	=||	=||	=||
*-	*-	*-	*-
!!!RDF**kern: l=long note in original notation
!!!RDF**kern: i=editorial accidental
!!!ENC:	Jesse Rodin; Victoria Chang 2012/02/25
!!!END:	2012/02/25/
!!!EED:	Jesse Rodin
!!!EEV: 2012/04/24/
!!attribution-level@Jos: 3 (tricky)
!!!ONB:	Translated from MusicXML and edited on 2012/03/19/ by Craig Sapp
!!muse2ps: C^@{COM}\n@{SCT}^i2I150v95,95,95,150c150
